src/images/icons/done.svg

<svg width="23" height="15" viewBox="0 0 23 15" fill="none" xmlns="http://www.w3.org/2000/svg">
<path d="M16.4712 0.260803C16.3462 0.161831 16.2028 0.0885943 16.0493 0.0453217C15.8958 0.00204906 15.7353 -0.0104034 15.577 0.00868272C15.4187 0.0277688 15.2658 0.0780159 15.127 0.156524C14.9882 0.235032 14.8663 0.340247 14.7684 0.466096L6.3152 11.3345L2.17312 6.28675C2.07596 6.15742 1.95381 6.04893 1.81392 5.96772C1.67402 5.8865 1.51924 5.83422 1.35875 5.81397C1.19826 5.79373 1.03535 5.80593 0.879666 5.84986C0.723986 5.89379 0.578718 5.96854 0.452484 6.06969C0.326251 6.17084 0.221625 6.29632 0.144817 6.43868C0.0680097 6.58104 0.0205859 6.73738 0.00536095 6.89842C-0.00986403 7.05946 0.00742029 7.22192 0.0561875 7.37615C0.104955 7.53039 0.184211 7.67325 0.289252 7.79626L5.32497 14.0517C5.43862 14.1918 5.58223 14.3046 5.74523 14.3819C5.90823 14.4593 6.08649 14.4991 6.2669 14.4985C6.4584 14.507 6.64918 14.4699 6.82347 14.3901C6.99776 14.3103 7.15055 14.1901 7.26921 14.0396L16.7248 1.96353C16.8212 1.83555 16.8911 1.68967 16.9306 1.53439C16.9701 1.3791 16.9782 1.21752 16.9546 1.05904C16.931 0.900572 16.8761 0.748379 16.7931 0.611334C16.7101 0.47429 16.6007 0.355132 16.4712 0.260803ZM22.5092 0.260803C22.3842 0.161831 22.2408 0.0885943 22.0873 0.0453217C21.9339 0.00204906 21.7734 -0.0104034 21.6151 0.00868272C21.4568 0.0277688 21.3038 0.0780159 21.165 0.156524C21.0262 0.235032 20.9044 0.340247 20.8065 0.466096L12.3532 11.3345L11.6166 10.4288L10.095 12.3852L11.4234 14.0396C11.537 14.1797 11.6806 14.2925 11.8436 14.3699C12.0066 14.4472 12.1849 14.487 12.3653 14.4864C12.5467 14.4856 12.7256 14.4439 12.8886 14.3644C13.0517 14.285 13.1948 14.1698 13.3072 14.0275L22.7628 1.95145C22.8573 1.82385 22.9257 1.67886 22.9641 1.52478C23.0025 1.37071 23.0102 1.21057 22.9866 1.05353C22.9631 0.896493 22.9088 0.745644 22.8269 0.609617C22.7449 0.473591 22.637 0.355058 22.5092 0.260803Z" fill="white"/>
<path d="M6.91854 8.53287L8.47635 6.57655L8.23483 6.28672C8.13949 6.15464 8.01841 6.0432 7.87888 5.95913C7.73935 5.87506 7.58425 5.82009 7.42292 5.79753C7.26159 5.77497 7.09736 5.78528 6.94012 5.82784C6.78288 5.8704 6.63588 5.94434 6.50795 6.0452C6.3839 6.14486 6.28077 6.26805 6.20448 6.40769C6.12819 6.54733 6.08025 6.70068 6.06342 6.85891C6.04658 7.01714 6.06119 7.17714 6.10639 7.3297C6.15159 7.48227 6.2265 7.6244 6.32681 7.74793L6.91854 8.53287Z" fill="white"/>
</svg>

<svg width="23" height="15" fill="none" xmlns="http://www.w3.org/2000/svg"><path d="M16.471.26a1.207 1.207 0 0 0-1.703.206L6.315 11.334 2.173 6.288A1.208 1.208 0 1 0 .29 7.797l5.036 6.255a1.207 1.207 0 0 0 .942.447 1.208 1.208 0 0 0 1.002-.46l9.456-12.075A1.208 1.208 0 0 0 16.47.26zm6.038 0a1.207 1.207 0 0 0-1.703.206l-8.453 10.868-.736-.905-1.522 1.956 1.328 1.655a1.208 1.208 0 0 0 1.884-.012L22.763 1.95a1.208 1.208 0 0 0-.254-1.69z" fill="#fff"/><path d="m6.919 8.533 1.557-1.956-.241-.29a1.208 1.208 0 0 0-1.727-.242 1.208 1.208 0 0 0-.181 1.703l.592.785z" fill="#fff"/></svg>
